X:1
T:Y Lili - The Lilly
C:Trad.
L:1/16
Q:1/4=180
M:2/4
I:linebreak $
K:D
V:1 treble 
V:1
 A2 | dcdA B2AG | FEFA E2A2 | dcdA B2AG | FGFE D2 :: A2 | FADA FADA | GBEB GBEB |$ FADA FADA | %9
 FGFE D2 :: DE | F2F2 E2DE | F2F2 E2DE | F2F2 E2DB | AGFE D2 :| %15
